static/img/kroki/9430c6649d851f61b385bd2b4400839a.svg

<?xml version="1.0" encoding="us-ascii" standalone="no"?><svg xmlns="http://www.w3.org/2000/svg" xmlns:xlink="http://www.w3.org/1999/xlink" contentStyleType="text/css" height="867px" preserveAspectRatio="none" style="width:645px;height:867px;" version="1.1" viewBox="0 0 645 867" width="645px" zoomAndPan="magnify"><defs/><g><!--class azure_capacity_reservation_group--><g id="elem_azure_capacity_reservation_group"><rect codeLine="22" fill="#3D176E" height="126.6797" id="azure_capacity_reservation_group" rx="2.5" ry="2.5" style="stroke:#000D19;stroke-width:0.5;" width="631" x="7" y="599.54"/><ellipse cx="171.25" cy="619.4345" fill="#ADD1B2" rx="11" ry="11" style="stroke:#181818;stroke-width:1.0;"/><path d="M174.2188,625.0752 Q173.6406,625.372 173,625.5127 Q172.3594,625.6689 171.6563,625.6689 Q169.1563,625.6689 167.8281,624.0283 Q166.5156,622.372 166.5156,619.247 Q166.5156,616.122 167.8281,614.4658 Q169.1563,612.8095 171.6563,612.8095 Q172.3594,612.8095 173,612.9658 Q173.6563,613.122 174.2188,613.4189 L174.2188,616.1377 Q173.5938,615.5595 173,615.2939 Q172.4063,615.0127 171.7813,615.0127 Q170.4375,615.0127 169.75,616.0908 Q169.0625,617.1533 169.0625,619.247 Q169.0625,621.3408 169.75,622.4189 Q170.4375,623.4814 171.7813,623.4814 Q172.4063,623.4814 173,623.2158 Q173.5938,622.9345 174.2188,622.3564 L174.2188,625.0752 Z " fill="#000000"/><text fill="#D9B8FF" font-family="Helvetica" font-size="17" lengthAdjust="spacing" textLength="284" x="196.75" y="625.3198">azure_capacity_reservation_group</text><line style="stroke:#000D19;stroke-width:0.5;" x1="8" x2="637" y1="639.3291" y2="639.3291"/><text fill="#D9B8FF" font-family="sans-serif" font-size="14" font-weight="bold" lengthAdjust="spacing" textLength="172" x="18" y="661.3242">capacity_reservations</text><text fill="#D9B8FF" font-family="sans-serif" font-size="14" lengthAdjust="spacing" textLength="58" x="190" y="661.3242">: string[]</text><text fill="#D9B8FF" font-family="sans-serif" font-size="14" font-weight="bold" lengthAdjust="spacing" textLength="263" x="18" y="687.6211">reservation_group_instance_view</text><text fill="#D9B8FF" font-family="sans-serif" font-size="14" lengthAdjust="spacing" textLength="346" x="281" y="687.6211">: azure_capacity_reservation_group_instance_view</text><text fill="#D9B8FF" font-family="sans-serif" font-size="14" font-weight="bold" lengthAdjust="spacing" textLength="223" x="18" y="713.9179">virtual_machines_associated</text><text fill="#D9B8FF" font-family="sans-serif" font-size="14" lengthAdjust="spacing" textLength="58" x="241" y="713.9179">: string[]</text></g><!--class azure_capacity_reservation_group_instance_view--><g id="elem_azure_capacity_reservation_group_instance_view"><rect codeLine="27" fill="#3D176E" height="74.0859" id="azure_capacity_reservation_group_instance_view" rx="2.5" ry="2.5" style="stroke:#000D19;stroke-width:0.5;" width="454" x="95.5" y="786.22"/><ellipse cx="110.5" cy="806.1145" fill="#ADD1B2" rx="11" ry="11" style="stroke:#181818;stroke-width:1.0;"/><path d="M113.4688,811.7552 Q112.8906,812.052 112.25,812.1927 Q111.6094,812.3489 110.9063,812.3489 Q108.4063,812.3489 107.0781,810.7083 Q105.7656,809.052 105.7656,805.927 Q105.7656,802.802 107.0781,801.1458 Q108.4063,799.4895 110.9063,799.4895 Q111.6094,799.4895 112.25,799.6458 Q112.9063,799.802 113.4688,800.0989 L113.4688,802.8177 Q112.8438,802.2395 112.25,801.9739 Q111.6563,801.6927 111.0313,801.6927 Q109.6875,801.6927 109,802.7708 Q108.3125,803.8333 108.3125,805.927 Q108.3125,808.0208 109,809.0989 Q109.6875,810.1614 111.0313,810.1614 Q111.6563,810.1614 112.25,809.8958 Q112.8438,809.6145 113.4688,809.0364 L113.4688,811.7552 Z " fill="#000000"/><text fill="#D9B8FF" font-family="Helvetica" font-size="17" lengthAdjust="spacing" textLength="412" x="129.5" y="811.9998">azure_capacity_reservation_group_instance_view</text><line style="stroke:#000D19;stroke-width:0.5;" x1="96.5" x2="548.5" y1="826.0091" y2="826.0091"/><text fill="#D9B8FF" font-family="sans-serif" font-size="14" font-weight="bold" lengthAdjust="spacing" textLength="172" x="106.5" y="848.0042">capacity_reservations</text><text fill="#D9B8FF" font-family="sans-serif" font-size="14" lengthAdjust="spacing" textLength="58" x="278.5" y="848.0042">: string[]</text></g><!--class azure_resource--><g id="elem_azure_resource"><rect codeLine="30" fill="#3D176E" height="39.7891" id="azure_resource" rx="2.5" ry="2.5" style="stroke:#000D19;stroke-width:0.5;" width="168" x="238.5" y="438.76"/><ellipse cx="253.5" cy="458.6545" fill="#ADD1B2" rx="11" ry="11" style="stroke:#181818;stroke-width:1.0;"/><path d="M256.4688,464.2952 Q255.8906,464.592 255.25,464.7327 Q254.6094,464.8889 253.9063,464.8889 Q251.4063,464.8889 250.0781,463.2483 Q248.7656,461.592 248.7656,458.467 Q248.7656,455.342 250.0781,453.6858 Q251.4063,452.0295 253.9063,452.0295 Q254.6094,452.0295 255.25,452.1858 Q255.9063,452.342 256.4688,452.6389 L256.4688,455.3577 Q255.8438,454.7795 255.25,454.5139 Q254.6563,454.2327 254.0313,454.2327 Q252.6875,454.2327 252,455.3108 Q251.3125,456.3733 251.3125,458.467 Q251.3125,460.5608 252,461.6389 Q252.6875,462.7014 254.0313,462.7014 Q254.6563,462.7014 255.25,462.4358 Q255.8438,462.1545 256.4688,461.5764 L256.4688,464.2952 Z " fill="#000000"/><text fill="#D9B8FF" font-family="Helvetica" font-size="17" lengthAdjust="spacing" textLength="126" x="272.5" y="464.5398">azure_resource</text></g><!--class resource--><g id="elem_resource"><rect codeLine="32" fill="#3D176E" height="310.7578" id="resource" rx="2.5" ry="2.5" style="stroke:#000D19;stroke-width:0.5;" width="227" x="209" y="7"/><ellipse cx="277.75" cy="26.8945" fill="#ADD1B2" rx="11" ry="11" style="stroke:#181818;stroke-width:1.0;"/><path d="M280.7188,32.5352 Q280.1406,32.832 279.5,32.9727 Q278.8594,33.1289 278.1563,33.1289 Q275.6563,33.1289 274.3281,31.4883 Q273.0156,29.832 273.0156,26.707 Q273.0156,23.582 274.3281,21.9258 Q275.6563,20.2695 278.1563,20.2695 Q278.8594,20.2695 279.5,20.4258 Q280.1563,20.582 280.7188,20.8789 L280.7188,23.5977 Q280.0938,23.0195 279.5,22.7539 Q278.9063,22.4727 278.2813,22.4727 Q276.9375,22.4727 276.25,23.5508 Q275.5625,24.6133 275.5625,26.707 Q275.5625,28.8008 276.25,29.8789 Q276.9375,30.9414 278.2813,30.9414 Q278.9063,30.9414 279.5,30.6758 Q280.0938,30.3945 280.7188,29.8164 L280.7188,32.5352 Z " fill="#000000"/><text fill="#D9B8FF" font-family="Helvetica" font-size="17" lengthAdjust="spacing" textLength="71" x="303.25" y="32.7798">resource</text><line style="stroke:#000D19;stroke-width:0.5;" x1="210" x2="435" y1="46.7891" y2="46.7891"/><text fill="#D9B8FF" font-family="sans-serif" font-size="14" font-weight="bold" lengthAdjust="spacing" textLength="29" x="220" y="68.7842">age</text><text fill="#D9B8FF" font-family="sans-serif" font-size="14" lengthAdjust="spacing" textLength="66" x="249" y="68.7842">: duration</text><text fill="#D9B8FF" font-family="sans-serif" font-size="14" font-weight="bold" lengthAdjust="spacing" textLength="43" x="220" y="95.0811">atime</text><text fill="#D9B8FF" font-family="sans-serif" font-size="14" lengthAdjust="spacing" textLength="70" x="263" y="95.0811">: datetime</text><text fill="#D9B8FF" font-family="sans-serif" font-size="14" font-weight="bold" lengthAdjust="spacing" textLength="43" x="220" y="121.3779">ctime</text><text fill="#D9B8FF" font-family="sans-serif" font-size="14" lengthAdjust="spacing" textLength="70" x="263" y="121.3779">: datetime</text><text fill="#D9B8FF" font-family="sans-serif" font-size="14" font-weight="bold" lengthAdjust="spacing" textLength="14" x="220" y="147.6748">id</text><text fill="#D9B8FF" font-family="sans-serif" font-size="14" lengthAdjust="spacing" textLength="48" x="234" y="147.6748">: string</text><text fill="#D9B8FF" font-family="sans-serif" font-size="14" font-weight="bold" lengthAdjust="spacing" textLength="33" x="220" y="173.9717">kind</text><text fill="#D9B8FF" font-family="sans-serif" font-size="14" lengthAdjust="spacing" textLength="48" x="253" y="173.9717">: string</text><text fill="#D9B8FF" font-family="sans-serif" font-size="14" font-weight="bold" lengthAdjust="spacing" textLength="90" x="220" y="200.2686">last_access</text><text fill="#D9B8FF" font-family="sans-serif" font-size="14" lengthAdjust="spacing" textLength="66" x="310" y="200.2686">: duration</text><text fill="#D9B8FF" font-family="sans-serif" font-size="14" font-weight="bold" lengthAdjust="spacing" textLength="90" x="220" y="226.5654">last_update</text><text fill="#D9B8FF" font-family="sans-serif" font-size="14" lengthAdjust="spacing" textLength="66" x="310" y="226.5654">: duration</text><text fill="#D9B8FF" font-family="sans-serif" font-size="14" font-weight="bold" lengthAdjust="spacing" textLength="48" x="220" y="252.8623">mtime</text><text fill="#D9B8FF" font-family="sans-serif" font-size="14" lengthAdjust="spacing" textLength="70" x="268" y="252.8623">: datetime</text><text fill="#D9B8FF" font-family="sans-serif" font-size="14" font-weight="bold" lengthAdjust="spacing" textLength="43" x="220" y="279.1592">name</text><text fill="#D9B8FF" font-family="sans-serif" font-size="14" lengthAdjust="spacing" textLength="48" x="263" y="279.1592">: string</text><text fill="#D9B8FF" font-family="sans-serif" font-size="14" font-weight="bold" lengthAdjust="spacing" textLength="34" x="220" y="305.4561">tags</text><text fill="#D9B8FF" font-family="sans-serif" font-size="14" lengthAdjust="spacing" textLength="171" x="254" y="305.4561">: dictionary[string, string]</text></g><!--link azure_capacity_reservation_group to azure_capacity_reservation_group_instance_view--><g id="link_azure_capacity_reservation_group_azure_capacity_reservation_group_instance_view"><path codeLine="44" d="M322.5,726.48 C322.5,746.71 322.5,762.46 322.5,780.11 " fill="none" id="azure_capacity_reservation_group-to-azure_capacity_reservation_group_instance_view" style="stroke:#FFAF37;stroke-width:2.0;"/><polygon fill="#FFAF37" points="322.5,786.11,326.5,777.11,322.5,781.11,318.5,777.11,322.5,786.11" style="stroke:#FFAF37;stroke-width:2.0;"/></g><!--reverse link azure_resource to azure_capacity_reservation_group--><g id="link_azure_resource_azure_capacity_reservation_group"><path codeLine="45" d="M322.5,497.04 C322.5,524.52 322.5,558.07 322.5,599.44 " fill="none" id="azure_resource-backto-azure_capacity_reservation_group" style="stroke:#FFAF37;stroke-width:2.0;"/><polygon fill="none" points="322.5,479.04,316.5,497.04,328.5,497.04,322.5,479.04" style="stroke:#FFAF37;stroke-width:2.0;"/></g><!--reverse link resource to azure_resource--><g id="link_resource_azure_resource"><path codeLine="46" d="M322.5,335.84 C322.5,384.13 322.5,413.36 322.5,438.67 " fill="none" id="resource-backto-azure_resource" style="stroke:#FFAF37;stroke-width:2.0;"/><polygon fill="none" points="322.5,317.84,316.5,335.84,328.5,335.84,322.5,317.84" style="stroke:#FFAF37;stroke-width:2.0;"/></g><!--SRC=[bLDTQzj047pthpZ8cuZ0JaWSbr983ALv2QNfMoXYVRUo3qjtOczbuxJzxxspud3wI9I-IJEpCxDtqaOh55XMV10bbYiaDt5RRIeWACKjaTqlRM59dEKvv9VpBldL6XuLF429uXiMEsGjeQlukT5oQz0vSH5HTo2tQxArKOqz4nZdAJGSgPO5E7VBJ7fLCqPbr69ra-TTPTVqx5BDvjVOarbII2-IwNIgPekkP3JgtRrV5O_w6SKiFhG7ozYhsOiugjvj6HHHoTwY9_xDZjz1AMtMuYh2VZITo22ryCSDABiFwXmA5ySuHaBBXmgNlQrmSQFo-Q3u_Ysn32SduBacp2HK83KVCaA7j0FMrcHXg1A_9qaoHBia-UHZo5Tz-kKrlSbC6yTW96OxZVkW7ijgJtZFdIQkeSXAa1ljl-lCDxPI0wDgfV_zu3BjW0-krZRtCbkJH3zy8Y8eIM2DOLhLTBGA2EkomNply1nI1p0TxUHV_LMs0P_56KZfV-zEmf6fg-3LOSg170CDz6hCi6uSjGnZG8UdXZj_qOGp6FrEqlJB_rvmvqG__qdJTDHZCgW_WVy0]--></g></svg>

<svg xmlns="http://www.w3.org/2000/svg" width="645" height="867" viewBox="0 0 645 867"><rect width="631" height="126.68" x="7" y="599.54" fill="#3D176E" rx="2.5" ry="2.5" style="stroke:#000d19;stroke-width:.5"/><circle cx="171.25" cy="619.434" r="11" fill="#ADD1B2" style="stroke:#181818;stroke-width:1"/><path d="M174.219 625.075q-.578.297-1.219.438-.64.156-1.344.156-2.5 0-3.828-1.64-1.312-1.657-1.312-4.782t1.312-4.781q1.328-1.657 3.828-1.657.703 0 1.344.157.656.156 1.219.453v2.719q-.625-.579-1.219-.844-.594-.281-1.219-.281-1.344 0-2.031 1.078-.687 1.062-.687 3.156t.687 3.172q.688 1.062 2.031 1.062.625 0 1.219-.265.594-.282 1.219-.86z"/><text x="196.75" y="625.32" fill="#D9B8FF" font-family="Helvetica" font-size="17" textLength="284">azure_capacity_reservation_group</text><path d="M8 639.329h629" style="stroke:#000d19;stroke-width:.5"/><text x="18" y="661.324" fill="#D9B8FF" font-family="sans-serif" font-size="14" font-weight="bold" textLength="172">capacity_reservations</text><text x="190" y="661.324" fill="#D9B8FF" font-family="sans-serif" font-size="14" textLength="58">: string[]</text><text x="18" y="687.621" fill="#D9B8FF" font-family="sans-serif" font-size="14" font-weight="bold" textLength="263">reservation_group_instance_view</text><text x="281" y="687.621" fill="#D9B8FF" font-family="sans-serif" font-size="14" textLength="346">: azure_capacity_reservation_group_instance_view</text><text x="18" y="713.918" fill="#D9B8FF" font-family="sans-serif" font-size="14" font-weight="bold" textLength="223">virtual_machines_associated</text><text x="241" y="713.918" fill="#D9B8FF" font-family="sans-serif" font-size="14" textLength="58">: string[]</text><rect width="454" height="74.086" x="95.5" y="786.22" fill="#3D176E" rx="2.5" ry="2.5" style="stroke:#000d19;stroke-width:.5"/><circle cx="110.5" cy="806.115" r="11" fill="#ADD1B2" style="stroke:#181818;stroke-width:1"/><path d="M113.469 811.755q-.578.297-1.219.438-.64.156-1.344.156-2.5 0-3.828-1.64-1.312-1.657-1.312-4.782t1.312-4.781q1.328-1.656 3.828-1.656.703 0 1.344.156.656.156 1.219.453v2.719q-.625-.578-1.219-.844-.594-.281-1.219-.281-1.344 0-2.031 1.078-.687 1.062-.687 3.156t.687 3.172q.688 1.062 2.031 1.062.625 0 1.219-.265.594-.281 1.219-.86z"/><text x="129.5" y="812" fill="#D9B8FF" font-family="Helvetica" font-size="17" textLength="412">azure_capacity_reservation_group_instance_view</text><path d="M96.5 826.009h452" style="stroke:#000d19;stroke-width:.5"/><text x="106.5" y="848.004" fill="#D9B8FF" font-family="sans-serif" font-size="14" font-weight="bold" textLength="172">capacity_reservations</text><text x="278.5" y="848.004" fill="#D9B8FF" font-family="sans-serif" font-size="14" textLength="58">: string[]</text><rect width="168" height="39.789" x="238.5" y="438.76" fill="#3D176E" rx="2.5" ry="2.5" style="stroke:#000d19;stroke-width:.5"/><circle cx="253.5" cy="458.654" r="11" fill="#ADD1B2" style="stroke:#181818;stroke-width:1"/><path d="M256.469 464.295q-.578.297-1.219.438-.64.156-1.344.156-2.5 0-3.828-1.64-1.312-1.657-1.312-4.782t1.312-4.781q1.328-1.656 3.828-1.656.703 0 1.344.156.656.156 1.219.453v2.719q-.625-.579-1.219-.844-.594-.281-1.219-.281-1.344 0-2.031 1.078-.687 1.062-.687 3.156t.687 3.172q.688 1.062 2.031 1.062.625 0 1.219-.265.594-.281 1.219-.86z"/><text x="272.5" y="464.54" fill="#D9B8FF" font-family="Helvetica" font-size="17" textLength="126">azure_resource</text><rect width="227" height="310.758" x="209" y="7" fill="#3D176E" rx="2.5" ry="2.5" style="stroke:#000d19;stroke-width:.5"/><circle cx="277.75" cy="26.895" r="11" fill="#ADD1B2" style="stroke:#181818;stroke-width:1"/><path d="M280.719 32.535q-.578.297-1.219.438-.64.156-1.344.156-2.5 0-3.828-1.64-1.312-1.657-1.312-4.782t1.312-4.781q1.328-1.656 3.828-1.656.703 0 1.344.156.656.156 1.219.453v2.719q-.625-.578-1.219-.844-.594-.281-1.219-.281-1.344 0-2.031 1.078-.687 1.062-.687 3.156t.687 3.172q.688 1.062 2.031 1.062.625 0 1.219-.265.594-.281 1.219-.86z"/><text x="303.25" y="32.78" fill="#D9B8FF" font-family="Helvetica" font-size="17" textLength="71">resource</text><path d="M210 46.789h225" style="stroke:#000d19;stroke-width:.5"/><text x="220" y="68.784" fill="#D9B8FF" font-family="sans-serif" font-size="14" font-weight="bold" textLength="29">age</text><text x="249" y="68.784" fill="#D9B8FF" font-family="sans-serif" font-size="14" textLength="66">: duration</text><text x="220" y="95.081" fill="#D9B8FF" font-family="sans-serif" font-size="14" font-weight="bold" textLength="43">atime</text><text x="263" y="95.081" fill="#D9B8FF" font-family="sans-serif" font-size="14" textLength="70">: datetime</text><text x="220" y="121.378" fill="#D9B8FF" font-family="sans-serif" font-size="14" font-weight="bold" textLength="43">ctime</text><text x="263" y="121.378" fill="#D9B8FF" font-family="sans-serif" font-size="14" textLength="70">: datetime</text><text x="220" y="147.675" fill="#D9B8FF" font-family="sans-serif" font-size="14" font-weight="bold" textLength="14">id</text><text x="234" y="147.675" fill="#D9B8FF" font-family="sans-serif" font-size="14" textLength="48">: string</text><text x="220" y="173.972" fill="#D9B8FF" font-family="sans-serif" font-size="14" font-weight="bold" textLength="33">kind</text><text x="253" y="173.972" fill="#D9B8FF" font-family="sans-serif" font-size="14" textLength="48">: string</text><text x="220" y="200.269" fill="#D9B8FF" font-family="sans-serif" font-size="14" font-weight="bold" textLength="90">last_access</text><text x="310" y="200.269" fill="#D9B8FF" font-family="sans-serif" font-size="14" textLength="66">: duration</text><text x="220" y="226.565" fill="#D9B8FF" font-family="sans-serif" font-size="14" font-weight="bold" textLength="90">last_update</text><text x="310" y="226.565" fill="#D9B8FF" font-family="sans-serif" font-size="14" textLength="66">: duration</text><text x="220" y="252.862" fill="#D9B8FF" font-family="sans-serif" font-size="14" font-weight="bold" textLength="48">mtime</text><text x="268" y="252.862" fill="#D9B8FF" font-family="sans-serif" font-size="14" textLength="70">: datetime</text><text x="220" y="279.159" fill="#D9B8FF" font-family="sans-serif" font-size="14" font-weight="bold" textLength="43">name</text><text x="263" y="279.159" fill="#D9B8FF" font-family="sans-serif" font-size="14" textLength="48">: string</text><text x="220" y="305.456" fill="#D9B8FF" font-family="sans-serif" font-size="14" font-weight="bold" textLength="34">tags</text><text x="254" y="305.456" fill="#D9B8FF" font-family="sans-serif" font-size="14" textLength="171">: dictionary[string, string]</text><path fill="none" d="M322.5 726.48v53.63" style="stroke:#ffaf37;stroke-width:2"/><path fill="#FFAF37" d="m322.5 786.11 4-9-4 4-4-4z" style="stroke:#ffaf37;stroke-width:2"/><path fill="none" d="M322.5 497.04v102.4m0-120.4-6 18h12zm0-143.2v102.83m0-120.83-6 18h12z" style="stroke:#ffaf37;stroke-width:2"/></svg>
